X: 3407
T: Berwick Billy
R: three-two
M: 3/2
K: Gmajor
|:d2G2 G2d2 edcB|(3dedG2 G2d2 B2g2|d2G2 G2d2 edcB|{d}c2A2 A2B2 c2e2:|
g3a .g2(G2 BcdB)|g3a .g2(d2 .g2.b2)|g3a .g2(G2 BcdB)|e2a2 a2(A2 c2e2)|g3a .g2(G2 BcdB)|g3a .g2(d2 .g2.b2)|g3a bagf gfed|e2a2 a2(A2 c2e2)||
|:d4 edcB edcB|{e}d4 edcB dgfg|d4 edcB edcB|{d}c2A2 A2B2 c2e2:|
|:d2ef .g2(B2 g2G2)|d2ef .g2(B2 a2A2)|d2ef gfed BcdB|e2A2 A2B2 c2e2:|

